X: 38
T:Humours of Ballyloughlin
M:6/8
R:Dbl Jig
L:1/8
K:Ador
A| "Am"A3 AGE| GED EDE| "C"c3 cAd| "D"dcA "A"AGE|
A3 AGE| GEG cGE| "D"DED DFA| DED D2:|
